src/assets/icons/skills/figma.svg

<svg xmlns="http://www.w3.org/2000/svg" width="50" height="50"><path d="M25 2v14h-7c-3.855 0-7-3.145-7-7s3.145-7 7-7h7zm0 16v14h-7c-3.855 0-7-3.145-7-7s3.145-7 7-7h7zm0 16v7c0 3.855-3.145 7-7 7s-7-3.145-7-7 3.145-7 7-7h7zM41 9c0 3.855-3.145 7-7 7h-7V2h7c3.855 0 7 3.145 7 7zm-7 9a7 7 0 1 0 0 14 7 7 0 1 0 0-14z"/></svg>

<svg xmlns="http://www.w3.org/2000/svg"  viewBox="0 0 50 50" width="50px" height="50px"><path d="M25 2v14h-7c-3.855 0-7-3.145-7-7 0-3.855 3.145-7 7-7H25zM25 18v14h-7c-3.855 0-7-3.145-7-7 0-3.855 3.145-7 7-7H25zM25 34v7c0 3.855-3.145 7-7 7s-7-3.145-7-7c0-3.855 3.145-7 7-7H25zM41 9c0 3.855-3.145 7-7 7h-7V2h7C37.855 2 41 5.145 41 9zM34 18A7 7 0 1034 32 7 7 0 1034 18z"/></svg>
